X: 323
T: Small Bulgarish
R: bulgar
Q: 1/4=150
B: German Goldenshteyn "Shpilt klezmorimlach klingen zoln di gesalach" New York 2003 v.3 #23
Z: 2012 John Chambers <jc:trillian.mit.edu>
M: 2/4
L: 1/8
K: G
|: Tb3a | g2b2 | {^c'}d'2 {c'}d'2 | a3g | ag3- | ggab |[1 ag3- | g2z2 :|[2 ag3- | gbc'^c' ||
|: d'3d' | e'2d'2 | c'2b2 | a2g2 | a3g | b2a2 | g2f2 | e2d2 | g2a2 | b2d'c' |
b2a2 |[1 g2a2 | b4- | b4- | b4- | bbc'^c' :|[2 g2f2 | e4- e4- | e4 | e2z2 |]
P: Small Bulgarish, down an octave:
|: TB3A | G2B2 | {^c}d2 {c}d2 | A3G | AG3- | GGAB |[1 AG3- | G2z2 :|[2 AG3- | GBc^c ||
|: d3d | e2d2 | c2B2 | A2G2 | A3G | B2A2 | G2F2 | E2D2 | G2A2 | B2dc |
B2A2 |[1 G2A2 | B4- | B4- | B4- | BBc^c :|[2 G2F2 | E4- E4- | E4 | E2z2 |]
